images/basis/logo.svg

<svg height="240" viewBox="0 0 240 240" width="240" xmlns="http://www.w3.org/2000/svg" xmlns:xlink="http://www.w3.org/1999/xlink"><defs><circle id="a" cx="120" cy="120" r="120"/><path id="b" d="m0 0h218.181818v218.181818h-218.181818z"/><path id="c" d="m1.53663924 13.968659c5.59364204 14.3912263 19.57622706 24.5914851 35.94043046 24.5914851 18.5327519 0 34.9581091-13.038491 37.7082683-30.51957496.8392559-5.33463774-3.7724974-8.04056914-8.3728865-8.04056914-12.6734151 0-33.0358802 0-55.6235018 0-9.5596606 0-11.74761573 5.76787878-10.7799214 10.353376.29946565 1.419042.74354697 2.6271698 1.12761094 3.615283z"/><path id="d" d="m.67701288 9.19664354c4.12305274 16.85576516 18.47125012 29.36350056 36.59210222 29.36350056 16.9909787 0 30.7598623-11.471855 36.6921764-26.3073382 1.2639292-3.16082372.7680633-12.2528059-7.7917003-12.2528059-31.7937221 0-51.5354037 0-57.52133095 0-9.92666934 0-8.69214644 6.24948126-7.97124737 9.19664354z"/><mask id="e" fill="#fff"><use fill="none" xlink:href="#a"/></mask><mask id="f" fill="#fff"><use fill="none" xlink:href="#b"/></mask><mask id="g" fill="#fff"><use fill="none" xlink:href="#c"/></mask><mask id="h" fill="#fff"><use fill="none" xlink:href="#d"/></mask></defs><g fill="none" fill-rule="evenodd"><use fill="#d8d8d8" xlink:href="#a"/><g mask="url(#e)"><g transform="translate(-41.454545 -39.709091)"><path d="m0 0h327.272727v327.272727h-327.272727z" fill="#422f51"/><g fill="none" transform="translate(54.545455 54.545455)"><use fill="#422f51" xlink:href="#b"/><g mask="url(#f)"><g transform="translate(24.507955 48.371591)"><path d="m85.8947348 15.424019c14.4930872-12.53275366 31.3036152-16.7352364 50.4315842-12.60744822 28.691955 6.19168228 34.584018 51.41815172 9.242398 59.79437712s17.295908 74.8783631-60.1334897 73.9140341c-77.42939739-.964328-37.6952515-58.9265064-61.623809-73.9140341-23.92855748-14.9875277-16.78781639-50.4593399 10.401908-59.79437712 18.1264829-6.22335816 35.3536191-2.02087542 51.6814085 12.60744822z" fill="#fd6856"/><g fill="none" transform="translate(.101043 24.632844)"><g fill="#422f51" transform="translate(71.3903 49.764412)"><path d="m14.4252452 14.3101661c-.2903624-9.78615024 2.312829-14.39611327 7.809574-13.82988909 3.0528596.31447755 5.7067543 4.51489277 2.4804587 8.93282647-1.0726935 1.46889472-4.5027044 3.10124892-10.2900327 4.89706262z"/><path d="m.02063892 13.6051829c-.27423117-9.59491689 2.18433842-14.11479561 7.37570876-13.55963614 2.88325632.30833227 5.38971242 4.42666625 2.34265541 8.75826814-1.01309939 1.4401907-4.25255412 3.0406467-9.71836417 4.801368z" transform="matrix(-1 0 0 1 11.12787 0)"/></g><path d="m92.3368791 91.671286c3.6338599-4.5115979 7.7556719-7.3463431 12.3654369-8.5042355 4.609764-1.1578924 8.731577-.7988944 12.365436 1.076994" stroke="#422f51" stroke-linecap="round" stroke-linejoin="round" stroke-width="10.472727"/><g transform="translate(.010262 9.167129)"><g transform="translate(93.985204)"><use fill="#fff" xlink:href="#c"/><path d="m-2.5250781 0c0 15.2689589 12.37388583 27.6468958 27.6378475 27.6468958 15.2639618 0 27.6378476-12.3779369 27.6378476-27.6468958" fill="#422f51" mask="url(#g)"/></g><use fill="#fff" xlink:href="#d"/><path d="m21.9955678 0c0 15.2689589 12.3738858 27.6468958 27.6378475 27.6468958 15.2639618 0 27.6378476-12.3779369 27.6378476-27.6468958" fill="#422f51" mask="url(#h)"/></g></g></g></g></g></g></g></g></svg>

<?xml version="1.0" encoding="UTF-8"?>
<svg width="240px" height="240px" viewBox="0 0 240 240" version="1.1" xmlns="http://www.w3.org/2000/svg" xmlns:xlink="http://www.w3.org/1999/xlink">
    <!-- Generator: Sketch 57.1 (83088) - https://sketch.com -->
    <title>logo</title>
    <desc>Created with Sketch.</desc>
    <defs>
        <circle id="path-1" cx="120" cy="120" r="120"></circle>
        <polygon id="path-3" points="0 0 218.181818 0 218.181818 218.181818 0 218.181818"></polygon>
        <path d="M1.53663924,13.968659 C7.13028128,28.3598853 21.1128663,38.5601441 37.4770697,38.5601441 C56.0098216,38.5601441 72.4351788,25.5216531 75.185338,8.04056914 C76.0245939,2.7059314 71.4128406,0 66.8124515,0 C54.1390364,0 33.7765713,0 11.1889497,0 C1.6292891,0 -0.558666031,5.76787878 0.409028299,10.353376 C0.708493952,11.772418 1.15257527,12.9805458 1.53663924,13.968659 Z" id="path-5"></path>
        <path d="M0.677012883,9.19664354 C4.80006562,26.0524087 19.148263,38.5601441 37.2691151,38.5601441 C54.2600938,38.5601441 68.0289774,27.0882891 73.9612915,12.2528059 C75.2252207,9.09198218 74.7293548,0 66.1695912,0 C34.3758691,0 14.6341875,0 8.64826025,0 C-1.27840909,0 -0.0438861935,6.24948126 0.677012883,9.19664354 Z" id="path-7"></path>
    </defs>
    <g id="Logo确定" stroke="none" stroke-width="1" fill="none" fill-rule="evenodd">
        <g id="logo">
            <mask id="mask-2" fill="white">
                <use xlink:href="#path-1"></use>
            </mask>
            <use id="蒙版" fill="#D8D8D8" xlink:href="#path-1"></use>
            <g id="编组-4" mask="url(#mask-2)">
                <g transform="translate(-41.454545, -39.709091)">
                    <rect id="矩形" fill="#422F51" x="0" y="0" width="327.272727" height="327.272727"></rect>
                    <g id="monk-方" stroke-width="1" fill="none" transform="translate(54.545455, 54.545455)">
                        <g id="编组-7备份-5">
                            <g>
                                <mask id="mask-4" fill="white">
                                    <use xlink:href="#path-3"></use>
                                </mask>
                                <use id="矩形" fill="#422F51" xlink:href="#path-3"></use>
                                <g id="编组-5" mask="url(#mask-4)">
                                    <g transform="translate(24.507955, 48.371591)">
                                        <path d="M85.8947348,15.424019 C100.387822,2.89126534 117.19835,-1.3112174 136.326319,2.81657078 C165.018274,9.00825306 170.910337,54.2347225 145.568717,62.6109479 C120.227097,70.9871733 162.864625,137.489311 85.4352273,136.524982 C8.00582991,135.560654 47.7399758,77.5984756 23.8114183,62.6109479 C-0.117139175,47.6234202 7.02360191,12.151608 34.2133263,2.81657078 C52.3398092,-3.40678738 69.5669454,0.795695357 85.8947348,15.424019 Z" id="路径" fill="#FD6856"></path>
                                        <g id="编组-2" stroke-width="1" fill="none" transform="translate(0.101043, 24.632844)">
                                            <g id="编组" transform="translate(71.390300, 49.764412)" fill="#422F51">
                                                <g id="编组-3">
                                                    <path d="M14.4252452,14.3101661 C14.1348828,4.52401586 16.7380742,-0.0859471653 22.2348192,0.48027701 C25.2876788,0.794754558 27.9415735,4.99516978 24.7152779,9.41310348 C23.6425844,10.8819982 20.2125735,12.5143524 14.4252452,14.3101661 Z" id="路径-5"></path>
                                                    <path d="M0.0206389175,13.6051829 C-0.253592249,4.01026601 2.20497734,-0.509612709 7.39634768,0.0455467554 C10.279604,0.353879029 12.7860601,4.47221301 9.73900309,8.8038149 C8.7259037,10.2440056 5.48644897,11.8444616 0.0206389175,13.6051829 Z" id="路径-5备份" transform="translate(5.563935, 6.802591) scale(-1, 1) translate(-5.563935, -6.802591) "></path>
                                                </g>
                                            </g>
                                            <path d="M92.3368791,91.671286 C95.970739,87.1596881 100.092551,84.3249429 104.702316,83.1670505 C109.31208,82.0091581 113.433893,82.3681561 117.067752,84.2440445" id="路径-11" stroke="#422F51" stroke-width="10.4727273" stroke-linecap="round" stroke-linejoin="round"></path>
                                            <g id="编组-6" transform="translate(0.010262, 9.167129)">
                                                <g id="路径备份-2" transform="translate(93.985204, 0.000000)">
                                                    <mask id="mask-6" fill="white">
                                                        <use xlink:href="#path-5"></use>
                                                    </mask>
                                                    <use id="蒙版" fill="#FFFFFF" xlink:href="#path-5"></use>
                                                    <path d="M-2.5250781,0 C-2.5250781,15.2689589 9.84880773,27.6468958 25.1127694,27.6468958 L25.1127694,27.6468958 C40.3767312,27.6468958 52.750617,15.2689589 52.750617,0" fill="#422F51" mask="url(#mask-6)"></path>
                                                </g>
                                                <g id="路径备份">
                                                    <mask id="mask-8" fill="white">
                                                        <use xlink:href="#path-7"></use>
                                                    </mask>
                                                    <use id="蒙版" fill="#FFFFFF" xlink:href="#path-7"></use>
                                                    <path d="M21.9955678,0 C21.9955678,15.2689589 34.3694536,27.6468958 49.6334153,27.6468958 L49.6334153,27.6468958 C64.8973771,27.6468958 77.2712629,15.2689589 77.2712629,0" fill="#422F51" mask="url(#mask-8)"></path>
                                                </g>
                                            </g>
                                        </g>
                                    </g>
                                </g>
                            </g>
                        </g>
                    </g>
                </g>
            </g>
        </g>
    </g>
</svg>
